X: 30898
T: Over The Bog Road
R: reel
M: 4/4
K: Gmajor
GEDE ~G2GA|Bdgd BG~G2|AGEG ~A2Ac|Bdgd ~B2AB|
GE~E2 ~G2GA|Bdgd BG~G2|Bdgd ~e2ge|1 dBAc BGAB:|2 dBAc BG~G2||
gede ~g2ga|b2ab gedg|ageg ~a2ab|(3c'ba bg agea|
gede ~g2ga|(3bag af gfed|Bdgd edge|1 dBAc BG~G2:|2 dBAc BGAB||

